X:717
T:Millbrae
C:Ronnie Cooper
S:As played by The Hamefarers
Z:Nigel Gatherer
M:4/4
L:1/8
K:A
af | eAAc eAce | fedf eaga | fedc dcBA | G2 B2 B2
af | eAAc eAce | fedf eaga | fedc dBed | c2 A2 A2 :|
a2 | gbeg begb | aAce agfe | fedc dcBA | G2 B2 B2
a2 | gbeg begb | aAce agfe | fedc dBed | c2 A2 A2
a2 | gbeg begb | aAce agfe | fedc dcBA | G2 B2 B2
af | eAAc eAce | fedf eaga | fedc dBed | c2 A2 A2 ||
<end>
<start>
